img/home/logo-shoutem-for-developers.svg

<svg height="34" viewBox="0 0 214 34" width="214" xmlns="http://www.w3.org/2000/svg"><g fill="none" fill-rule="evenodd" transform=""><text fill="#8f95a7" font-family="MuseoSans-500, Museo Sans" font-size="16"><tspan x="108" y="29.299999">for developers</tspan></text><g opacity=".9"><g fill="#1a1919"><path d="m1.43497419 26.5163383s1.51069678 1.6502877 4.04709033 1.6502877c1.45687742 0 2.72476129-.7306713 2.72476129-2.1650218 0-2.9766696-7.31192258-2.2459983-7.31192258-6.6846382 0-2.4355711 2.18531612-3.7619529 4.64098064-3.7619529 2.85993548 0 4.18163871 1.4889625 4.18163871 1.4889625l-.83607742 1.4073583s-1.16024516-1.2454054-3.39938064-1.2454054c-1.37614839 0-2.69847742.5957106-2.69847742 2.1110375 0 3.0042894 7.3119226 2.1920139 7.3119226 6.6846382 0 2.2196338-1.91559357 3.8159372-4.64098067 3.8159372-3.29174193 0-5.01834193-1.975449-5.01834193-1.975449z"/><path d="m32.4374258 15.5550131c3.9663613 0 7.1767484 3.0312816 7.1767484 7.0637838 0 4.1134786-3.2103871 7.1987445-7.1767484 7.1987445s-7.1767484-3.0852659-7.1767484-7.1987445c0-4.0325022 3.2103871-7.0637838 7.1767484-7.0637838zm0 12.6116129c2.9137548 0 5.2886903-2.380959 5.2886903-5.5478291 0-3.0852659-2.3749355-5.3858762-5.2886903-5.3858762s-5.2880645 2.3006103-5.2880645 5.3858762c0 3.1668701 2.3743097 5.5478291 5.2880645 5.5478291z"/><path d="m41.2337613 15.8801744h1.8348645v8.1729729c0 2.1380297.3241677 4.0325022 2.9412903 4.0325022 3.1027484 0 5.018342-2.7331124 5.018342-5.6834176v-6.5220575h1.8342387v13.6128334h-1.7804194v-2.0294333c0-.5957105.0538194-1.0828247.0538194-1.0828247h-.0538194c-.5394451 1.3263818-2.3204903 3.4367916-5.3149742 3.4367916-3.1841032 0-4.5333419-1.7318919-4.5333419-5.2772798z"/><path d="m56.1824 17.4105667h-1.7804194v-1.5423191h1.8079549v-4.4474281h1.807329v4.4474281h4.2686258v1.5423191h-4.2686258v6.9407498c0 3.1932345 2.0238581 3.5993723 3.048929 3.5993723.3779871 0 .6208-.0546121.6208-.0546121v1.6509155s-.2966322.054612-.7828838.054612c-1.5645162 0-4.7217097-.5147341-4.7217097-5.0613426z"/><path d="m68.8368323 15.5550131c3.750458 0 5.6666774 2.8963208 5.6666774 6.2791281 0 .3245336-.0544452.9472363-.0544452.9472363h-10.414671c.0807291 3.4907759 2.4556646 5.3852485 5.2611549 5.3852485 2.4825742 0 4.1284451-1.6502877 4.1284451-1.6502877l.8360775 1.4073583s-1.9694129 1.8938448-5.018342 1.8938448c-4.0470903 0-7.0960193-2.9226853-7.0960193-7.1171404 0-4.465632 3.0220193-7.1453879 6.6911226-7.1453879zm3.8049032 5.7104097c-.1082645-2.841081-1.8348645-4.1674629-3.8587226-4.1674629-2.2660452 0-4.2354581 1.4343505-4.6678903 4.1674629z"/><path d="m76.3928194 15.8801744h1.8079548v2.0294333c0 .5957105-.0538194 1.0828247-.0538194 1.0828247h.0538194c.6470839-1.8404882 2.8061161-3.4374193 4.9100774-3.4374193 2.5094839 0 3.8042774 1.1638012 4.2091742 3.4104272h.0538194c.7290645-1.8404883 2.6984774-3.4104272 4.992058-3.4104272 3.2911162 0 4.5058065 1.9220924 4.5058065 5.2779076v8.6600871h-1.8348645v-8.1999651c0-2.2196338-.4587162-4.060122-2.9412904-4.060122-2.0770516 0-3.7767419 1.8404882-4.2899032 3.8435571-.1889935.5950828-.2421871 1.2447776-.2421871 1.975449v6.441081h-1.8348645v-8.1999651c0-2.0570532-.2972581-4.060122-2.8605613-4.060122-2.2122258 0-3.8850064 1.9220924-4.4513613 4.00551-.1351742.5687184-.1889935 1.1907934-.1889935 1.8134961v6.441081h-1.8348645z"/></g><path d="m61.7451935 14.0101831c-.4668516 0-.9118-.2504621-1.1614967-.6540889-.2446903-.394211-.2709742-.8781866-.0738452-1.3006452l4.7010581-11.23626853c.006258-.01506539.0131419-.03013077.0200258-.04456844.2321742-.47079337.7027806-.76268526 1.2265806-.76268526.3642194 0 .7071613.14249346.9656194.40174368l6.5108903 6.53084568c.3104.31197907.4537097.75703574.3823677 1.19204882-.0719677.43501308-.3498258.81102005-.743458 1.00624237-.0143936.00690497-.0294129.01380994-.0438065.02008719l-11.2013096 4.71546639c-.1858646.0872537-.381742.1318222-.5826259.1318222zm4.7799097-12.27766348-4.4056774 10.53133388 10.4991548-4.41980816z" fill="#23a0cc"/><path d="m19.1077484 15.5550131c-3.0758387 0-4.8837936 2.0840453-5.396329 3.383435h-.0538194s.0538194-.4871142.0538194-1.1098169v-6.4078117h-1.8348646v18.0721883h1.8348646v-6.5220575c0-.6496949.0538193-1.2723976.2159032-1.8134961.6208-2.2736181 2.6171226-3.8699215 4.9376129-3.8699215 2.6171226 0 2.9406645 1.8944725 2.9406645 4.0325022v8.1729729h1.8348645v-8.6600871c0-3.3558152-1.1871548-5.2779076-4.5327161-5.2779076" fill="#1a1919"/></g></g></svg>

<?xml version="1.0" encoding="UTF-8"?>
<svg width="214px" height="34px" viewBox="0 0 214 34" version="1.1" xmlns="http://www.w3.org/2000/svg" xmlns:xlink="http://www.w3.org/1999/xlink">
    <!-- Generator: sketchtool 46.2 (44496) - http://www.bohemiancoding.com/sketch -->
    <title>A30BC9AF-4064-4154-8C03-816CF767762A</title>
    <desc>Created with sketchtool.</desc>
    <defs></defs>
    <g id="----A1.12-SE-Web---Developers" stroke="none" stroke-width="1" fill="none" fill-rule="evenodd">
        <g id="A1.12-SE-Web---Developers-v16.5" transform="translate(-134.000000, -21.000000)">
            <g id="Main-Nav">
                <g id="logo-shoutem-for-developers" transform="translate(134.000000, 21.000000)">
                    <text id="for-developers" font-family="MuseoSans-500, Museo Sans" font-size="16" font-weight="normal" fill="#8F95A7">
                        <tspan x="108" y="29.2999992">for developers</tspan>
                    </text>
                    <g id="Imported-Layers" opacity="0.9">
                        <path d="M1.43497419,26.5163383 C1.43497419,26.5163383 2.94567097,28.166626 5.48206452,28.166626 C6.93894194,28.166626 8.20682581,27.4359547 8.20682581,26.0016042 C8.20682581,23.0249346 0.894903226,23.7556059 0.894903226,19.316966 C0.894903226,16.8813949 3.08021935,15.5550131 5.53588387,15.5550131 C8.39581935,15.5550131 9.71752258,17.0439756 9.71752258,17.0439756 L8.88144516,18.4513339 C8.88144516,18.4513339 7.7212,17.2059285 5.48206452,17.2059285 C4.10591613,17.2059285 2.7835871,17.8016391 2.7835871,19.316966 C2.7835871,22.3212554 10.0955097,21.5089799 10.0955097,26.0016042 C10.0955097,28.221238 8.17991613,29.8175414 5.45452903,29.8175414 C2.1627871,29.8175414 0.436187097,27.8420924 0.436187097,27.8420924 L1.43497419,26.5163383" id="Fill-1" fill="#1A1919"></path>
                        <path d="M32.4374258,15.5550131 C36.4037871,15.5550131 39.6141742,18.5862947 39.6141742,22.6187969 C39.6141742,26.7322755 36.4037871,29.8175414 32.4374258,29.8175414 C28.4710645,29.8175414 25.2606774,26.7322755 25.2606774,22.6187969 C25.2606774,18.5862947 28.4710645,15.5550131 32.4374258,15.5550131 L32.4374258,15.5550131 Z M32.4374258,28.166626 C35.3511806,28.166626 37.7261161,25.785667 37.7261161,22.6187969 C37.7261161,19.533531 35.3511806,17.2329207 32.4374258,17.2329207 C29.523671,17.2329207 27.1493613,19.533531 27.1493613,22.6187969 C27.1493613,25.785667 29.523671,28.166626 32.4374258,28.166626 L32.4374258,28.166626 Z" id="Fill-2" fill="#1A1919"></path>
                        <path d="M41.2337613,15.8801744 L43.0686258,15.8801744 L43.0686258,24.0531473 C43.0686258,26.191177 43.3927935,28.0856495 46.0099161,28.0856495 C49.1126645,28.0856495 51.0282581,25.3525371 51.0282581,22.4022319 L51.0282581,15.8801744 L52.8624968,15.8801744 L52.8624968,29.4930078 L51.0820774,29.4930078 L51.0820774,27.4635745 C51.0820774,26.867864 51.1358968,26.3807498 51.1358968,26.3807498 L51.0820774,26.3807498 C50.5426323,27.7071316 48.7615871,29.8175414 45.7671032,29.8175414 C42.583,29.8175414 41.2337613,28.0856495 41.2337613,24.5402616 L41.2337613,15.8801744" id="Fill-3" fill="#1A1919"></path>
                        <path d="M56.1824,17.4105667 L54.4019806,17.4105667 L54.4019806,15.8682476 L56.2099355,15.8682476 L56.2099355,11.4208195 L58.0172645,11.4208195 L58.0172645,15.8682476 L62.2858903,15.8682476 L62.2858903,17.4105667 L58.0172645,17.4105667 L58.0172645,24.3513165 C58.0172645,27.544551 60.0411226,27.9506888 61.0661935,27.9506888 C61.4441806,27.9506888 61.6869935,27.8960767 61.6869935,27.8960767 L61.6869935,29.5469922 C61.6869935,29.5469922 61.3903613,29.6016042 60.9041097,29.6016042 C59.3395935,29.6016042 56.1824,29.0868701 56.1824,24.5402616 L56.1824,17.4105667" id="Fill-4" fill="#1A1919"></path>
                        <path d="M68.8368323,15.5550131 C72.5872903,15.5550131 74.5035097,18.4513339 74.5035097,21.8341412 C74.5035097,22.1586748 74.4490645,22.7813775 74.4490645,22.7813775 L64.0343935,22.7813775 C64.1151226,26.2721534 66.4900581,28.166626 69.2955484,28.166626 C71.7781226,28.166626 73.4239935,26.5163383 73.4239935,26.5163383 L74.260071,27.9236966 C74.260071,27.9236966 72.2906581,29.8175414 69.241729,29.8175414 C65.1946387,29.8175414 62.1457097,26.8948561 62.1457097,22.700401 C62.1457097,18.234769 65.167729,15.5550131 68.8368323,15.5550131 L68.8368323,15.5550131 Z M72.6417355,21.2654228 C72.533471,18.4243418 70.806871,17.0979599 68.7830129,17.0979599 C66.5169677,17.0979599 64.5475548,18.5323104 64.1151226,21.2654228 L72.6417355,21.2654228 L72.6417355,21.2654228 Z" id="Fill-5" fill="#1A1919"></path>
                        <path d="M76.3928194,15.8801744 L78.2007742,15.8801744 L78.2007742,17.9096077 C78.2007742,18.5053182 78.1469548,18.9924324 78.1469548,18.9924324 L78.2007742,18.9924324 C78.8478581,17.1519442 81.0068903,15.5550131 83.1108516,15.5550131 C85.6203355,15.5550131 86.915129,16.7188143 87.3200258,18.9654403 L87.3738452,18.9654403 C88.1029097,17.124952 90.0723226,15.5550131 92.3659032,15.5550131 C95.6570194,15.5550131 96.8717097,17.4771055 96.8717097,20.8329207 L96.8717097,29.4930078 L95.0368452,29.4930078 L95.0368452,21.2930427 C95.0368452,19.0734089 94.578129,17.2329207 92.0955548,17.2329207 C90.0185032,17.2329207 88.3188129,19.0734089 87.8056516,21.0764778 C87.6166581,21.6715606 87.5634645,22.3212554 87.5634645,23.0519268 L87.5634645,29.4930078 L85.7286,29.4930078 L85.7286,21.2930427 C85.7286,19.2359895 85.4313419,17.2329207 82.8680387,17.2329207 C80.6558129,17.2329207 78.9830323,19.1550131 78.4166774,21.2384307 C78.2815032,21.8071491 78.2276839,22.4292241 78.2276839,23.0519268 L78.2276839,29.4930078 L76.3928194,29.4930078 L76.3928194,15.8801744" id="Fill-6" fill="#1A1919"></path>
                        <path d="M61.7451935,14.0101831 C61.2783419,14.0101831 60.8333935,13.759721 60.5836968,13.3560942 C60.3390065,12.9618832 60.3127226,12.4779076 60.5098516,12.055449 L65.2109097,0.819180471 C65.2171677,0.804115083 65.2240516,0.789049695 65.2309355,0.774612031 C65.4631097,0.303818657 65.9337161,0.0119267655 66.4575161,0.0119267655 C66.8217355,0.0119267655 67.1646774,0.154420227 67.4231355,0.413670445 L73.9340258,6.94451613 C74.2444258,7.2564952 74.3877355,7.70155187 74.3163935,8.13656495 C74.2444258,8.57157803 73.9665677,8.947585 73.5729355,9.14280732 C73.5585419,9.14971229 73.5435226,9.15661726 73.529129,9.16289451 L62.3278194,13.8783609 C62.1419548,13.9656146 61.9460774,14.0101831 61.7451935,14.0101831 L61.7451935,14.0101831 Z M66.5251032,1.73251962 L62.1194258,12.2638535 L72.6185806,7.84404534 L66.5251032,1.73251962 L66.5251032,1.73251962 Z" id="Fill-7" fill="#23A0CC"></path>
                        <path d="M19.1077484,15.5550131 C16.0319097,15.5550131 14.2239548,17.6390584 13.7114194,18.9384481 L13.6576,18.9384481 C13.6576,18.9384481 13.7114194,18.4513339 13.7114194,17.8286312 L13.7114194,11.4208195 L11.8765548,11.4208195 L11.8765548,29.4930078 L13.7114194,29.4930078 L13.7114194,22.9709503 C13.7114194,22.3212554 13.7652387,21.6985527 13.9273226,21.1574542 C14.5481226,18.8838361 16.5444452,17.2875327 18.8649355,17.2875327 C21.4820581,17.2875327 21.8056,19.1820052 21.8056,21.3200349 L21.8056,29.4930078 L23.6404645,29.4930078 L23.6404645,20.8329207 C23.6404645,17.4771055 22.4533097,15.5550131 19.1077484,15.5550131" id="Fill-8" fill="#1A1919"></path>
                    </g>
                </g>
            </g>
        </g>
    </g>
</svg>
